build/img/icon-hired-w.svg

<svg width="32" height="32" viewBox="0 0 32 32" fill="none" xmlns="http://www.w3.org/2000/svg">
<path d="M28.2361 25.5022C28.575 25.0282 28.7754 24.4466 28.7754 23.8181V20.0625C28.7754 19.7173 28.499 19.4375 28.158 19.4375H25.3988C24.1233 19.4375 23.0855 20.488 23.0855 21.7792V23.8181C23.0855 24.4462 23.2858 25.0274 23.6242 25.5013C23.2021 25.5706 22.796 25.7075 22.4173 25.9079C21.5595 24.6121 20.1542 23.7185 18.5392 23.5677C18.5329 23.5659 18.5265 23.5646 18.5201 23.5631C19.0979 22.9099 19.4501 22.0481 19.4501 21.1044V16C19.4501 15.6548 19.1737 15.375 18.8328 15.375H15.0826C13.4713 15.375 12.1603 16.7021 12.1603 18.3332V21.1043C12.1603 22.0481 12.5126 22.9098 13.0904 23.563C13.084 23.5646 13.0776 23.5659 13.0713 23.5677C11.4562 23.7184 10.0507 24.6122 9.19297 25.9081C8.81414 25.7078 8.40802 25.5708 7.98616 25.5015C8.32461 25.0276 8.52496 24.4462 8.52496 23.8181V20.0625C8.52496 19.7173 8.24849 19.4375 7.90756 19.4375H5.14831C3.87278 19.4375 2.83507 20.488 2.83507 21.7792V23.8181C2.83507 24.4466 3.03553 25.0282 3.37436 25.5022C1.46334 25.8184 0 27.5009 0 29.5234V31.375C0 31.7202 0.276468 32 0.617392 32H30.9931C31.334 32 31.6105 31.7202 31.6105 31.375V29.5234C31.6105 27.5009 30.1472 25.8184 28.2361 25.5022ZM4.06985 21.7792C4.06985 21.1772 4.55364 20.6875 5.14831 20.6875H7.29017V21.4487C7.29017 21.8219 6.99024 22.1256 6.6216 22.1256H4.06985V21.7792ZM4.06985 23.3755H6.6216C6.85682 23.3755 7.08205 23.3318 7.29017 23.2524V23.8181C7.29017 24.7169 6.56788 25.4481 5.68001 25.4481C4.79214 25.4481 4.06985 24.7169 4.06985 23.8181V23.3755ZM6.07804 26.6981L5.68001 27.1011L5.28198 26.6981H6.07804ZM8.30714 28.8585V30.75H1.23478V29.5234C1.23478 28.1216 2.24873 26.9555 3.57304 26.7359L5.24345 28.4269C5.35928 28.5441 5.51628 28.6099 5.68001 28.6099C5.84374 28.6099 6.00075 28.5441 6.11657 28.4269L7.78748 26.7353C8.08259 26.7839 8.36641 26.8802 8.6309 27.0211C8.42173 27.594 8.30714 28.2129 8.30714 28.8585ZM15.8053 23.5442C14.4764 23.5442 13.3952 22.4497 13.3952 21.1044V20.2783H17.085C17.4941 20.2783 17.8794 20.1725 18.2154 19.9866V21.1044C18.2154 22.4497 17.1342 23.5442 15.8053 23.5442ZM16.8815 24.7941L15.8052 25.8836L14.729 24.7941H16.8815ZM13.3951 18.3332H13.3951C13.3951 17.3913 14.1521 16.625 15.0826 16.625H18.2154V17.884C18.2154 18.515 17.7082 19.0284 17.0849 19.0284H13.3951V18.3332ZM22.0685 30.75H20.8679H10.7426H9.54199V29.5H13.5621C13.903 29.5 14.1795 29.2202 14.1795 28.875C14.1795 28.5298 13.903 28.25 13.5621 28.25H9.58712C9.85173 26.4737 11.2563 25.0715 13.0198 24.8316L15.3687 27.2094C15.4893 27.3315 15.6473 27.3925 15.8052 27.3925C15.9632 27.3925 16.1212 27.3315 16.2418 27.2094L18.5907 24.8316C20.5513 25.0983 22.0685 26.8019 22.0685 28.8585V30.75ZM24.3203 21.7792C24.3203 21.1772 24.8041 20.6875 25.3988 20.6875H27.5406V21.4487C27.5406 21.8219 27.2407 22.1256 26.8721 22.1256H24.3203V21.7792ZM24.3203 23.3755H26.8721C27.1073 23.3755 27.3325 23.3318 27.5406 23.2524V23.8181C27.5406 24.7169 26.8184 25.4481 25.9305 25.4481C25.0426 25.4481 24.3203 24.7169 24.3203 23.8181V23.3755ZM26.3285 26.6981L25.9305 27.1011L25.5325 26.6981H26.3285ZM23.3033 30.75V28.8585C23.3033 28.2129 23.1887 27.5939 22.9795 27.021C23.2438 26.88 23.5276 26.7837 23.8228 26.7352L25.4939 28.4269C25.6097 28.5441 25.7667 28.6099 25.9304 28.6099C26.0942 28.6099 26.2512 28.5441 26.367 28.4269L28.0374 26.7359C29.3617 26.9556 30.3756 28.1216 30.3756 29.5234V30.75H23.3033Z" fill="#ffffff"/>
<path d="M18.8484 4.08356C18.6072 3.8395 18.2164 3.8395 17.9752 4.08356L14.9456 7.1505L13.636 5.82468C13.3948 5.58056 13.004 5.58056 12.7629 5.82462C12.5218 6.06868 12.5218 6.46443 12.7629 6.70856L14.5091 8.47631C14.6249 8.59349 14.7819 8.65937 14.9456 8.65937C15.1094 8.65937 15.2664 8.59349 15.3822 8.47631L18.8484 4.96743C19.0895 4.72337 19.0895 4.32762 18.8484 4.08356Z" fill="#ffffff"/>
<path d="M18.3309 0.541944C18.0195 0.401381 17.6544 0.542944 17.5155 0.858194C17.3766 1.17344 17.5165 1.54301 17.8279 1.68357C19.6183 2.49188 20.7752 4.29607 20.7752 6.27994C20.7752 9.05344 18.5462 11.3099 15.8065 11.3099C13.0667 11.3099 10.8378 9.05344 10.8378 6.27994C10.8378 4.30632 11.9863 2.50588 13.7638 1.69319C14.0745 1.55113 14.2127 1.18088 14.0723 0.866319C13.9319 0.551694 13.566 0.411881 13.2555 0.553944C11.0367 1.56844 9.60303 3.816 9.60303 6.27988C9.60297 9.74269 12.3859 12.5599 15.8065 12.5599C19.2271 12.5599 22.01 9.74269 22.01 6.27994C22.01 3.80325 20.5658 1.55094 18.3309 0.541944Z" fill="#ffffff"/>
<path d="M15.8275 0H15.8054C15.4645 0 15.188 0.279812 15.188 0.625C15.188 0.970187 15.4645 1.25 15.8054 1.25H15.8217C15.8227 1.25 15.8236 1.25 15.8246 1.25C16.1643 1.25 16.4404 0.972125 16.442 0.627937C16.4436 0.28275 16.1685 0.001625 15.8275 0Z" fill="#ffffff"/>
<path d="M16.2418 28.433C16.127 28.3168 15.9678 28.2499 15.8054 28.2499C15.643 28.2499 15.4837 28.3168 15.3689 28.433C15.254 28.5493 15.188 28.7105 15.188 28.8749C15.188 29.0393 15.254 29.2005 15.3689 29.3168C15.4838 29.433 15.643 29.4999 15.8054 29.4999C15.9678 29.4999 16.127 29.433 16.2418 29.3168C16.3567 29.2005 16.4228 29.0393 16.4228 28.8749C16.4228 28.7105 16.3567 28.5493 16.2418 28.433Z" fill="#ffffff"/>
</svg>

<svg width="32" height="32" fill="none" xmlns="http://www.w3.org/2000/svg"><path d="M28.236 25.502c.339-.474.54-1.055.54-1.684v-3.756a.621.621 0 00-.618-.625h-2.76c-1.275 0-2.313 1.051-2.313 2.342v2.04c0 .627.2 1.208.54 1.682a3.94 3.94 0 00-1.208.407 5.243 5.243 0 00-3.878-2.34l-.019-.005a3.7 3.7 0 00.93-2.459V16a.621.621 0 00-.617-.625h-3.75c-1.612 0-2.923 1.327-2.923 2.958v2.771a3.7 3.7 0 00.93 2.459l-.019.005a5.243 5.243 0 00-3.878 2.34 3.946 3.946 0 00-1.207-.407 2.888 2.888 0 00.539-1.683v-3.756a.621.621 0 00-.617-.625h-2.76c-1.275 0-2.313 1.051-2.313 2.342v2.04c0 .628.2 1.21.54 1.683C1.462 25.818 0 27.501 0 29.523v1.852c0 .345.276.625.617.625h30.376c.341 0 .617-.28.617-.625v-1.852c0-2.022-1.463-3.705-3.374-4.02zM4.07 21.78c0-.602.484-1.091 1.078-1.091H7.29v.76c0 .374-.3.678-.668.678H4.07v-.347zm0 1.596h2.552c.235 0 .46-.043.668-.123v.566c0 .899-.722 1.63-1.61 1.63-.888 0-1.61-.731-1.61-1.63v-.443zm2.008 3.323l-.398.403-.398-.403h.796zm2.23 2.16v1.892H1.234v-1.227a2.82 2.82 0 012.338-2.787l1.67 1.69a.614.614 0 00.874 0l1.67-1.69c.296.048.58.144.844.285a5.347 5.347 0 00-.324 1.837zm7.497-5.314c-1.329 0-2.41-1.094-2.41-2.44v-.826h3.69c.41 0 .794-.105 1.13-.291v1.117c0 1.346-1.08 2.44-2.41 2.44zm1.076 1.25l-1.076 1.09-1.076-1.09h2.152zm-3.486-6.46a1.7 1.7 0 011.688-1.709h3.132v1.259c0 .631-.507 1.144-1.13 1.144h-3.69v-.695zM22.07 30.75H9.541V29.5h4.02c.341 0 .618-.28.618-.625a.621.621 0 00-.618-.625H9.587c.265-1.776 1.67-3.178 3.433-3.418l2.349 2.377a.612.612 0 00.873 0l2.349-2.377c1.96.266 3.477 1.97 3.477 4.026v1.892zm2.251-8.97c0-.603.484-1.093 1.079-1.093h2.142v.762c0 .373-.3.677-.669.677H24.32v-.347zm0 1.595h2.552c.235 0 .46-.043.669-.123v.566c0 .899-.723 1.63-1.61 1.63-.888 0-1.61-.731-1.61-1.63v-.443zm2.008 3.323l-.398.403-.398-.403h.796zm-3.025 4.052v-1.892c0-.645-.114-1.264-.323-1.837a2.74 2.74 0 01.843-.286l1.67 1.692a.614.614 0 00.874 0l1.67-1.691a2.82 2.82 0 012.339 2.787v1.227h-7.073zM18.848 4.084a.612.612 0 00-.873 0l-3.03 3.067-1.309-1.326a.612.612 0 00-.873 0 .63.63 0 000 .884l1.746 1.767a.614.614 0 00.873 0l3.466-3.509a.63.63 0 000-.883z" fill="#fff"/><path d="M18.33.542a.615.615 0 00-.814.316.628.628 0 00.312.826 5.042 5.042 0 012.947 4.596c0 2.773-2.229 5.03-4.968 5.03-2.74 0-4.97-2.257-4.97-5.03a5.046 5.046 0 012.927-4.587.628.628 0 00.308-.827.614.614 0 00-.816-.312c-2.22 1.014-3.653 3.262-3.653 5.726 0 3.463 2.783 6.28 6.204 6.28 3.42 0 6.203-2.817 6.203-6.28 0-2.477-1.444-4.73-3.68-5.738z" fill="#fff"/><path d="M15.828 0h-.023c-.34 0-.617.28-.617.625s.276.625.617.625h.02c.34 0 .615-.278.617-.622A.621.621 0 0015.828 0zm.414 28.433a.618.618 0 00-.437-.183.618.618 0 00-.617.625.619.619 0 00.617.625.618.618 0 00.618-.625.634.634 0 00-.181-.442z" fill="#fff"/></svg>
